game/static/game/image/road_tiles/road/turn.svg

<?xml version="1.0" encoding="UTF-8" standalone="no"?>
<!-- Generator: Adobe Illustrator 16.2.1, SVG Export Plug-In . SVG Version: 6.00 Build 0)  -->

<svg
   xmlns:dc="http://purl.org/dc/elements/1.1/"
   xmlns:cc="http://creativecommons.org/ns#"
   xmlns:rdf="http://www.w3.org/1999/02/22-rdf-syntax-ns#"
   xmlns:svg="http://www.w3.org/2000/svg"
   xmlns="http://www.w3.org/2000/svg"
   xmlns:xlink="http://www.w3.org/1999/xlink"
   xmlns:sodipodi="http://sodipodi.sourceforge.net/DTD/sodipodi-0.dtd"
   xmlns:inkscape="http://www.inkscape.org/namespaces/inkscape"
   version="1.1"
   id="Layer_1"
   
   viewBox="0 0 200 200"
   enable-background="new 0 0 200 200"
   xml:space="preserve"
   inkscape:version="0.48.4 r9939"
   sodipodi:docname="roadTile_turn.svg"><metadata
     id="metadata3069"><rdf:RDF><cc:Work
         rdf:about=""><dc:format>image/svg+xml</dc:format><dc:type
           rdf:resource="http://purl.org/dc/dcmitype/StillImage" /><dc:title /></cc:Work></rdf:RDF></metadata><defs
     id="defs3067"><linearGradient
       id="linearGradient4264"><stop
         style="stop-color:#232323;stop-opacity:1;"
         offset="0"
         id="stop4266" /><stop
         id="stop4276"
         offset="0.39104959"
         style="stop-color:#232323;stop-opacity:1;" /><stop
         id="stop4274"
         offset="0.52826893"
         style="stop-color:#303030;stop-opacity:1;" /><stop
         id="stop4272"
         offset="0.84533256"
         style="stop-color:#303030;stop-opacity:1;" /><stop
         style="stop-color:#232323;stop-opacity:1;"
         offset="1"
         id="stop4268" /></linearGradient><linearGradient
       y2="99.950203"
       x2="164.3252"
       y1="99.950203"
       x1="36.274399"
       gradientUnits="userSpaceOnUse"
       id="SVGID_1_"><stop
         id="stop3037"
         style="stop-color:#232323"
         offset="0" /><stop
         id="stop3039"
         style="stop-color:#303030"
         offset="0.2245" /><stop
         id="stop3041"
         style="stop-color:#303030"
         offset="0.7449" /><stop
         id="stop3043"
         style="stop-color:#232323"
         offset="1" /></linearGradient><linearGradient
       inkscape:collect="always"
       xlink:href="#SVGID_1_"
       id="linearGradient5959"
       gradientUnits="userSpaceOnUse"
       x1="36.274399"
       y1="99.950203"
       x2="164.3252"
       y2="99.950203"
       gradientTransform="matrix(0.64386671,0,0,1,36.193529,0)" /><linearGradient
       inkscape:collect="always"
       xlink:href="#SVGID_1_"
       id="linearGradient3055"
       gradientUnits="userSpaceOnUse"
       gradientTransform="matrix(0.64386671,0,0,1,36.193529,0)"
       x1="36.274399"
       y1="99.950203"
       x2="164.3252"
       y2="99.950203" /><linearGradient
       inkscape:collect="always"
       xlink:href="#SVGID_1_"
       id="linearGradient3142"
       gradientUnits="userSpaceOnUse"
       gradientTransform="matrix(0.68600605,0,0,1,31.372466,199.966)"
       x1="36.274399"
       y1="99.950203"
       x2="164.3252"
       y2="99.950203" /><linearGradient
       inkscape:collect="always"
       xlink:href="#SVGID_1_"
       id="linearGradient4239"
       gradientUnits="userSpaceOnUse"
       gradientTransform="matrix(0.68600605,0,0,1,31.538733,-0.73565705)"
       x1="36.274399"
       y1="99.950203"
       x2="164.3252"
       y2="99.950203" /><radialGradient
       inkscape:collect="always"
       xlink:href="#linearGradient4264"
       id="radialGradient4270"
       cx="-0.073656961"
       cy="200.22318"
       fx="-0.073656961"
       fy="200.22318"
       r="72.015625"
       gradientTransform="matrix(2.0000105,0,0,1.9914558,0.0736577,-198.80926)"
       gradientUnits="userSpaceOnUse" /><linearGradient
       inkscape:collect="always"
       xlink:href="#SVGID_1_"
       id="linearGradient4396"
       gradientUnits="userSpaceOnUse"
       gradientTransform="matrix(0.68600605,0,0,1,31.372466,199.966)"
       x1="36.274399"
       y1="99.950203"
       x2="164.3252"
       y2="99.950203" /><linearGradient
       inkscape:collect="always"
       xlink:href="#SVGID_1_"
       id="linearGradient4398"
       gradientUnits="userSpaceOnUse"
       gradientTransform="matrix(0.68600605,0,0,1,31.538733,-0.73565705)"
       x1="36.274399"
       y1="99.950203"
       x2="164.3252"
       y2="99.950203" /></defs><sodipodi:namedview
     pagecolor="#ffffff"
     bordercolor="#666666"
     borderopacity="1"
     objecttolerance="10"
     gridtolerance="10"
     guidetolerance="10"
     inkscape:pageopacity="0"
     inkscape:pageshadow="2"
     inkscape:window-width="1920"
     inkscape:window-height="1014"
     id="namedview3065"
     showgrid="false"
     inkscape:zoom="4.7999999"
     inkscape:cx="81.404523"
     inkscape:cy="75.825612"
     inkscape:window-x="0"
     inkscape:window-y="27"
     inkscape:window-maximized="1"
     inkscape:current-layer="Layer_1"
     showguides="true"
     inkscape:guide-bbox="true"><sodipodi:guide
       orientation="1,0"
       position="32.409061,205.65023"
       id="guide5940" /><sodipodi:guide
       orientation="1,0"
       position="167.5,221.66667"
       id="guide5942" /><sodipodi:guide
       orientation="1,0"
       position="100,254.79167"
       id="guide3053" /><sodipodi:guide
       orientation="1,0"
       position="49.895834,208.125"
       id="guide3027" /><sodipodi:guide
       orientation="1,0"
       position="56.250001,205.72917"
       id="guide3029" /><sodipodi:guide
       orientation="1,0"
       position="143.95834,207.1875"
       id="guide3031" /><sodipodi:guide
       orientation="1,0"
       position="149.89584,207.29167"
       id="guide3033" /><sodipodi:guide
       orientation="0,1"
       position="-5.2604168,167.44792"
       id="guide3094" /><sodipodi:guide
       orientation="0,1"
       position="-16.354167,32.395834"
       id="guide3096" /><sodipodi:guide
       orientation="0,1"
       position="-11.09375,49.791667"
       id="guide3098" /><sodipodi:guide
       orientation="0,1"
       position="-3.9062501,55.833334"
       id="guide3100" /><sodipodi:guide
       orientation="0,1"
       position="-7.4479168,100"
       id="guide3102" /><sodipodi:guide
       orientation="0,1"
       position="-6.3541668,149.73959"
       id="guide3104" /><sodipodi:guide
       orientation="0,1"
       position="-9.6354168,143.48959"
       id="guide3106" /><sodipodi:guide
       orientation="1,0"
       position="-0.073656958,195.04362"
       id="guide3110" /><sodipodi:guide
       orientation="0,1"
       position="-5.8925566,199.97864"
       id="guide3112" /><sodipodi:guide
       orientation="1,0"
       position="199.97864,0.77339805"
       id="guide3114" /><sodipodi:guide
       orientation="0,1"
       position="200.67838,0.073656958"
       id="guide3116" /><sodipodi:guide
       orientation="1,0"
       position="76.01398,-118.73502"
       id="guide4227" /><sodipodi:guide
       orientation="1,0"
       position="121.68129,-127.27922"
       id="guide4229" /><sodipodi:guide
       orientation="0,1"
       position="-66.880517,123.44906"
       id="guide4260" /><sodipodi:guide
       orientation="0,1"
       position="-86.031326,77.781747"
       id="guide4262" /></sodipodi:namedview><path
     style="fill:#ddcf8a;fill-opacity:1;stroke:none"
     d="M -0.0625 32.5625 L -0.0625 167.59375 C 17.877211 167.59375 32.40625 182.08645 32.40625 199.9375 L 167.5 199.9375 C 167.5 107.49924 92.485874 32.5625 -0.0625 32.5625 z "
     id="path4195" /><path
     style="fill:none;stroke:#72612e;stroke-width:2.48499999999999988;stroke-linecap:butt;stroke-linejoin:miter;stroke-opacity:1;stroke-miterlimit:4;stroke-dasharray:none"
     d="m -0.07365696,50.26041 0,99.94792"
     id="path4400"
     inkscape:connector-curvature="0"
     sodipodi:nodetypes="cc" /><path
     style="fill:#b79c77;fill-opacity:1;stroke:#b79c77;stroke-width:0.828;stroke-linecap:butt;stroke-linejoin:miter;stroke-opacity:1;stroke-miterlimit:4;stroke-dasharray:none"
     d="M 10.447177,169.19717 16.875,153.22916"
     id="path4294"
     inkscape:connector-curvature="0"
     sodipodi:nodetypes="cc" /><path
     sodipodi:nodetypes="cc"
     inkscape:connector-curvature="0"
     id="path4298"
     d="m 30.447177,188.7805 16.323657,-6.59301"
     style="fill:#b79c77;fill-opacity:1;stroke:#b79c77;stroke-width:0.828;stroke-linecap:butt;stroke-linejoin:miter;stroke-opacity:1;stroke-miterlimit:4;stroke-dasharray:none" /><path
     style="fill:none;stroke:#72612e;stroke-width:2.38800001;stroke-miterlimit:4;stroke-opacity:1"
     d="m -0.07365696,167.60417 c 17.93971096,0 32.48271896,14.47113 32.48271896,32.32218"
     id="path3118"
     inkscape:connector-curvature="0"
     sodipodi:nodetypes="cc" /><path
     style="fill:none;stroke:#72612e;stroke-width:2.38800001;stroke-miterlimit:4;stroke-opacity:1"
     d="m -0.07365696,150.20834 c 27.59738696,0 49.96948996,22.25951 49.96948996,49.71801"
     id="path3120"
     inkscape:connector-curvature="0"
     sodipodi:nodetypes="cc" /><path
     inkscape:connector-curvature="0"
     id="path4302"
     d="M 35.238844,164.61384 39.0625,160.83333"
     style="fill:none;stroke:#72612e;stroke-width:2.48499999999999988;stroke-linecap:butt;stroke-linejoin:miter;stroke-opacity:1;stroke-miterlimit:4;stroke-dasharray:none"
     sodipodi:nodetypes="cc" /><path
     style="fill:none;stroke:#b79c77;stroke-width:1px;stroke-linecap:butt;stroke-linejoin:miter;stroke-opacity:1"
     d="M 20.073657,51.659892 22.413706,33.877905"
     id="path4316"
     inkscape:connector-curvature="0"
     sodipodi:nodetypes="cc" /><path
     sodipodi:nodetypes="cc"
     inkscape:connector-curvature="0"
     id="path4318"
     d="M 58.00699,61.971866 64.91377,45.442047"
     style="fill:none;stroke:#b79c77;stroke-width:1px;stroke-linecap:butt;stroke-linejoin:miter;stroke-opacity:1" /><path
     style="fill:none;stroke:#b79c77;stroke-width:1px;stroke-linecap:butt;stroke-linejoin:miter;stroke-opacity:1"
     d="M 91.741877,81.711931 102.62613,67.539134"
     id="path4320"
     inkscape:connector-curvature="0"
     sodipodi:nodetypes="cc" /><path
     sodipodi:nodetypes="cc"
     inkscape:connector-curvature="0"
     id="path4322"
     d="M 119.36324,109.33329 133.4884,98.475056"
     style="fill:none;stroke:#b79c77;stroke-width:1px;stroke-linecap:butt;stroke-linejoin:miter;stroke-opacity:1" /><path
     style="fill:none;stroke:#b79c77;stroke-width:1px;stroke-linecap:butt;stroke-linejoin:miter;stroke-opacity:1"
     d="m 138.58771,143.28915 16.62949,-6.88076"
     id="path4324"
     inkscape:connector-curvature="0"
     sodipodi:nodetypes="cc" /><path
     sodipodi:nodetypes="cc"
     inkscape:connector-curvature="0"
     id="path4326"
     d="m 148.5314,180.55957 17.808,-2.31403"
     style="fill:none;stroke:#b79c77;stroke-width:1px;stroke-linecap:butt;stroke-linejoin:miter;stroke-opacity:1" /><path
     style="fill:none;stroke:#72612e;stroke-width:2.48499999999999988;stroke-linecap:butt;stroke-linejoin:miter;stroke-opacity:1;stroke-miterlimit:4;stroke-dasharray:none"
     d="m 38.958334,55.312498 -1.458333,5.3125"
     id="path4328"
     inkscape:connector-curvature="0" /><path
     inkscape:connector-curvature="0"
     id="path4330"
     d="m 76.01398,70.225415 -3.219659,5.179692"
     style="fill:none;stroke:#72612e;stroke-width:2.4849999;stroke-linecap:butt;stroke-linejoin:miter;stroke-miterlimit:4;stroke-opacity:1;stroke-dasharray:none"
     sodipodi:nodetypes="cc" /><path
     sodipodi:nodetypes="cc"
     style="fill:none;stroke:#72612e;stroke-width:2.4849999;stroke-linecap:butt;stroke-linejoin:miter;stroke-miterlimit:4;stroke-opacity:1;stroke-dasharray:none"
     d="m 106.21333,94.458554 -3.73526,3.927524"
     id="path4332"
     inkscape:connector-curvature="0" /><path
     inkscape:connector-curvature="0"
     id="path4334"
     d="m 129.93087,125.6891 -4.25086,2.52805"
     style="fill:none;stroke:#72612e;stroke-width:2.4849999;stroke-linecap:butt;stroke-linejoin:miter;stroke-miterlimit:4;stroke-opacity:1;stroke-dasharray:none"
     sodipodi:nodetypes="cc" /><path
     sodipodi:nodetypes="cc"
     style="fill:none;stroke:#72612e;stroke-width:2.4849999;stroke-linecap:butt;stroke-linejoin:miter;stroke-miterlimit:4;stroke-opacity:1;stroke-dasharray:none"
     d="m 144.73592,161.70735 -4.76646,1.20223"
     id="path4336"
     inkscape:connector-curvature="0" /><path
     style="fill:none;stroke:#72612e;stroke-width:2.38800001;stroke-miterlimit:4;stroke-opacity:1"
     d="M -0.07365696,50.260406 C 82.75221,50.260406 149.89584,117.26813 149.89584,199.92635"
     id="path3122"
     inkscape:connector-curvature="0"
     sodipodi:nodetypes="cc" /><path
     sodipodi:nodetypes="cc"
     inkscape:connector-curvature="0"
     id="path4402"
     d="m 149.89584,199.92634 -100.000006,0"
     style="fill:none;stroke:#72612e;stroke-width:2.4849999;stroke-linecap:butt;stroke-linejoin:miter;stroke-miterlimit:4;stroke-opacity:1;stroke-dasharray:none" /><path
     style="fill:url(#radialGradient4270);fill-opacity:1;stroke:none"
     d="m -0.0625,56.5 0,87.65625 c 31.106697,0 56.3125,24.98603 56.3125,55.78125 l 87.71875,0 C 143.96875,120.73106 79.484176,56.5 -0.0625,56.5 z"
     id="path4216"
     inkscape:connector-curvature="0" /><path
     style="fill:none;stroke:#72612e;stroke-width:2.38800001;stroke-miterlimit:4;stroke-opacity:1"
     d="M -0.07365696,32.552078 C 92.474717,32.552078 167.5,107.48809 167.5,199.92635"
     id="path3124"
     inkscape:connector-curvature="0"
     sodipodi:nodetypes="cc" /><path
     inkscape:connector-curvature="0"
     id="path6111"
     d="m 55.979288,200.29463 87.799092,-0.58926"
     style="fill:none;stroke:#808080;stroke-width:1px;stroke-linecap:butt;stroke-linejoin:miter;stroke-opacity:1" /><path
     style="fill:none;stroke:#808080;stroke-width:1px;stroke-linecap:butt;stroke-linejoin:miter;stroke-opacity:1"
     d="m -0.44107251,55.78054 0.589256,87.7991"
     id="path6134"
     inkscape:connector-curvature="0" /><path
     style="fill:none;stroke:#101928;stroke-width:3.31299996;stroke-miterlimit:4;stroke-opacity:1"
     d="m -0.07365696,144.16667 c 31.10669696,0 56.32365796,24.96446 56.32365796,55.75968"
     id="path3130"
     inkscape:connector-curvature="0"
     sodipodi:nodetypes="cc" /><path
     style="fill:none;stroke:#101928;stroke-width:3.313;stroke-miterlimit:4;stroke-opacity:1;stroke-dasharray:none"
     d="M -0.07365696,56.510406 C 79.473019,56.510406 143.95834,120.71991 143.95834,199.92635"
     id="path3931"
     inkscape:connector-curvature="0"
     sodipodi:nodetypes="cc" /><path
     sodipodi:type="arc"
     style="fill:none;stroke:#f4d100;stroke-width:4.97;stroke-miterlimit:4;stroke-opacity:1;stroke-dasharray:none;stroke-dashoffset:14.08919986000000080"
     id="path6888"
     sodipodi:cx="-0.073656961"
     sodipodi:cy="199.92635"
     sodipodi:rx="100.07365"
     sodipodi:ry="99.926346"
     d="m 83.346311,144.72803 a 100.07365,99.926346 0 0 1 14.893765,36.54041"
     sodipodi:start="5.6979566"
     sodipodi:end="6.0953664"
     transform="translate(3.2369233e-6,4.0262396e-6)"
     sodipodi:open="true" /><path
     transform="translate(3.2369233e-6,4.0262396e-6)"
     sodipodi:end="5.3041641"
     sodipodi:start="4.9217402"
     d="m 20.724182,102.1818 a 100.07365,99.926346 0 0 1 35.02676,14.8105"
     sodipodi:ry="99.926346"
     sodipodi:rx="100.07365"
     sodipodi:cy="199.92635"
     sodipodi:cx="-0.073656961"
     id="path6890"
     style="fill:none;stroke:#f4d100;stroke-width:4.97;stroke-miterlimit:4;stroke-opacity:1;stroke-dasharray:none;stroke-dashoffset:14.08919986000000080"
     sodipodi:type="arc"
     sodipodi:open="true" /></svg>

<?xml version="1.0" encoding="UTF-8" standalone="no"?>
<!-- Generator: Adobe Illustrator 16.2.1, SVG Export Plug-In . SVG Version: 6.00 Build 0)  -->
<svg id="Layer_1" xmlns:rdf="http://www.w3.org/1999/02/22-rdf-syntax-ns#" xmlns="http://www.w3.org/2000/svg" xml:space="preserve" viewBox="0 0 200 200" version="1.1" enable-background="new 0 0 200 200" xmlns:cc="http://creativecommons.org/ns#" xmlns:xlink="http://www.w3.org/1999/xlink" xmlns:dc="http://purl.org/dc/elements/1.1/"><metadata id="metadata3069"><rdf:RDF><cc:Work rdf:about=""><dc:format>image/svg+xml</dc:format><dc:type rdf:resource="http://purl.org/dc/dcmitype/StillImage"/><dc:title/></cc:Work></rdf:RDF></metadata><defs id="defs3067"><radialGradient id="radialGradient4270" gradientUnits="userSpaceOnUse" cy="200.22" cx="-.073657" gradientTransform="matrix(2 0 0 1.9915 .073658 -198.81)" r="72.016"><stop id="stop4266" stop-color="#232323" offset="0"/><stop id="stop4276" stop-color="#232323" offset=".39105"/><stop id="stop4274" stop-color="#303030" offset=".52827"/><stop id="stop4272" stop-color="#303030" offset=".84533"/><stop id="stop4268" stop-color="#232323" offset="1"/></radialGradient></defs><path id="path4195" fill="#ddcf8a" d="m-0.0625 32.562v135.03c17.94 0 32.468 14.5 32.468 32.35h135.09c0-92.44-75.014-167.38-167.56-167.38z"/><path id="path4400" d="m-0.073657 50.26v99.948" stroke="#72612e" stroke-width="2.485" fill="none"/><path id="path4294" d="m10.447 169.2 6.428-15.97" stroke="#b79c77" stroke-width=".828" fill="#b79c77"/><path id="path4298" d="m30.447 188.78 16.324-6.593" stroke="#b79c77" stroke-width=".828" fill="#b79c77"/><path id="path3118" d="m-0.073657 167.6c17.94 0 32.483 14.471 32.483 32.322" stroke="#72612e" stroke-width="2.388" fill="none"/><path id="path3120" d="m-0.073657 150.21c27.597 0 49.969 22.26 49.969 49.718" stroke="#72612e" stroke-width="2.388" fill="none"/><path id="path4302" d="m35.239 164.61 3.823-3.78" stroke="#72612e" stroke-width="2.485" fill="none"/><path id="path4316" d="m20.074 51.66 2.34-17.782" stroke="#b79c77" stroke-width="1px" fill="none"/><path id="path4318" d="m58.007 61.972 6.907-16.53" stroke="#b79c77" stroke-width="1px" fill="none"/><path id="path4320" d="m91.742 81.712 10.888-14.173" stroke="#b79c77" stroke-width="1px" fill="none"/><path id="path4322" d="m119.36 109.33 14.13-10.855" stroke="#b79c77" stroke-width="1px" fill="none"/><path id="path4324" d="m138.59 143.29 16.629-6.8808" stroke="#b79c77" stroke-width="1px" fill="none"/><path id="path4326" d="m148.53 180.56 17.808-2.314" stroke="#b79c77" stroke-width="1px" fill="none"/><path id="path4328" d="m38.958 55.312-1.4583 5.3125" stroke="#72612e" stroke-width="2.485" fill="none"/><path id="path4330" d="m76.014 70.225-3.2197 5.1797" stroke="#72612e" stroke-width="2.485" fill="none"/><path id="path4332" d="m106.21 94.459-3.7353 3.9275" stroke="#72612e" stroke-width="2.485" fill="none"/><path id="path4334" d="m129.93 125.69-4.2509 2.528" stroke="#72612e" stroke-width="2.485" fill="none"/><path id="path4336" d="m144.74 161.71-4.7665 1.2022" stroke="#72612e" stroke-width="2.485" fill="none"/><path id="path3122" d="m-0.073657 50.26c82.826 0 149.97 67.01 149.97 149.67" stroke="#72612e" stroke-width="2.388" fill="none"/><path id="path4402" d="m149.9 199.93h-100" stroke="#72612e" stroke-width="2.485" fill="none"/><path id="path4216" fill="url(#radialGradient4270)" d="m-0.0625 56.5v87.656c31.107 0 56.312 24.986 56.312 55.781h87.719c0-79.21-64.486-143.44-144.03-143.44z"/><path id="path3124" d="m-0.073657 32.552c92.549 0 167.57 74.938 167.57 167.38" stroke="#72612e" stroke-width="2.388" fill="none"/><path id="path6111" d="m55.979 200.29 87.799-0.58926" stroke="#808080" stroke-width="1px" fill="none"/><path id="path6134" d="m-0.44107 55.781 0.58926 87.799" stroke="#808080" stroke-width="1px" fill="none"/><path id="path3130" d="m-0.073657 144.17c31.107 0 56.324 24.964 56.324 55.76" stroke="#101928" stroke-width="3.313" fill="none"/><path id="path3931" d="m-0.073657 56.51c79.547 0 144.03 64.21 144.03 143.42" stroke="#101928" stroke-width="3.313" fill="none"/><path id="path6888" d="m83.346 144.73a100.07 99.926 0 0 1 14.894 36.54" stroke-dashoffset="14.089" transform="translate(.0000032369 .0000040262)" stroke="#f4d100" stroke-width="4.97" fill="none"/><path id="path6890" d="m20.724 102.18a100.07 99.926 0 0 1 35.027 14.81" stroke-dashoffset="14.089" transform="translate(.0000032369 .0000040262)" stroke="#f4d100" stroke-width="4.97" fill="none"/></svg>
